X:1
T:Night-geese Polska
C:Bill Quern 
M:3/4
Q:1/4=120
K:Dm
"Gm"g>d d>g "C"e<c|"Gm"d>B B>d "Am"c<A|"Gm"B>A G>B "F"A<F|"Gm"G>A B<c "D7"d2|
"Gm"g>d d>g "C"e<c|"Gm"d>B B>d "Am"c<A|"Gm"B>A G>B "F"A<F|"Gm"G2 G4:|
|:"Gm"G>A B>G Ad c>A B<c|"Bb"d>B c>d d<g|"D"^f2 d4|
"Gm"g>d d>g "C"e<c|"Gm"d>B B>d "Am"c<A|"Gm"B>A G>B "F"A<F|"Gm"G2 G4:|
